token/original/cake-lp.svg

<?xml version="1.0" encoding="utf-8"?>
<!-- Generator: Adobe Illustrator 24.0.0, SVG Export Plug-In . SVG Version: 6.00 Build 0)  -->
<svg version="1.1" id="Layer_1" xmlns="http://www.w3.org/2000/svg" xmlns:xlink="http://www.w3.org/1999/xlink" x="0px" y="0px"
	 viewBox="0 0 31.7 32" style="enable-background:new 0 0 31.7 32;" xml:space="preserve">
<style type="text/css">
	.st0{fill-rule:evenodd;clip-rule:evenodd;fill:#633001;}
	.st1{fill:#FEDC90;}
	.st2{fill-rule:evenodd;clip-rule:evenodd;fill:#D1884F;}
	.st3{fill:#633001;}
</style>
<path class="st0" d="M5.7,5C5.2,2.4,7.2,0,9.8,0c2.3,0,4.2,1.9,4.2,4.2v5.2c0.6,0,1.2-0.1,1.8-0.1c0.6,0,1.1,0,1.7,0.1V4.2
	c0-2.3,1.9-4.2,4.2-4.2c2.6,0,4.6,2.4,4.2,5l-1.1,6.1c3.9,1.7,6.9,4.7,6.9,8.4v2.3c0,3.1-2,5.7-4.9,7.4c-2.9,1.8-6.7,2.8-11,2.8
	s-8.1-1-11-2.8C2,27.5,0,24.9,0,21.8v-2.3c0-3.7,2.9-6.7,6.8-8.4L5.7,5z M23.3,11.9l1.3-7.2c0.3-1.8-1-3.5-2.9-3.5
	c-1.6,0-2.9,1.3-2.9,2.9v6.6c-0.4-0.1-0.9-0.1-1.3-0.1c-0.6,0-1.1-0.1-1.7-0.1c-0.6,0-1.2,0-1.8,0.1c-0.4,0-0.9,0.1-1.3,0.1V4.2
	c0-1.6-1.3-2.9-2.9-2.9C8,1.3,6.6,3,7,4.8L8.3,12c-4.2,1.6-7,4.4-7,7.6v2.3c0,4.9,6.5,8.9,14.5,8.9c8,0,14.5-4,14.5-8.9v-2.3
	C30.4,16.3,27.6,13.5,23.3,11.9z"/>
<path class="st1" d="M30.4,21.8c0,4.9-6.5,8.9-14.5,8.9c-8,0-14.5-4-14.5-8.9v-2.3h29.1V21.8z"/>
<path class="st2" d="M7,4.8C6.6,3,8,1.3,9.8,1.3c1.6,0,2.9,1.3,2.9,2.9v6.6c1-0.1,2-0.2,3.1-0.2c1,0,2,0.1,3,0.2V4.2
	c0-1.6,1.3-2.9,2.9-2.9c1.8,0,3.2,1.7,2.9,3.5l-1.3,7.2c4.2,1.6,7.1,4.4,7.1,7.6c0,4.9-6.5,8.9-14.5,8.9c-8,0-14.5-4-14.5-8.9
	c0-3.2,2.8-6,7-7.6L7,4.8z"/>
<path class="st3" d="M11.8,18.9c0,1.3-0.7,2.4-1.6,2.4c-0.9,0-1.6-1.1-1.6-2.4s0.7-2.4,1.6-2.4C11.1,16.5,11.8,17.6,11.8,18.9z"/>
<path class="st3" d="M22.9,18.9c0,1.3-0.7,2.4-1.6,2.4c-0.9,0-1.6-1.1-1.6-2.4s0.7-2.4,1.6-2.4C22.2,16.5,22.9,17.6,22.9,18.9z"/>
</svg>

<?xml version="1.0" encoding="UTF-8" standalone="no"?>
<!DOCTYPE svg PUBLIC "-//W3C//DTD SVG 1.1//EN" "http://www.w3.org/Graphics/SVG/1.1/DTD/svg11.dtd">
<svg width="100%" height="100%" viewBox="0 0 32 32" version="1.1" xmlns="http://www.w3.org/2000/svg" xmlns:xlink="http://www.w3.org/1999/xlink" xml:space="preserve" xmlns:serif="http://www.serif.com/" style="fill-rule:evenodd;clip-rule:evenodd;stroke-linejoin:round;stroke-miterlimit:2;">
    <g transform="matrix(0.78125,0,0,0.78125,3.46719,3.5)">
        <path d="M5.7,5C5.2,2.4 7.2,0 9.8,0C12.1,0 14,1.9 14,4.2L14,9.4C14.6,9.4 15.2,9.3 15.8,9.3C16.4,9.3 16.9,9.3 17.5,9.4L17.5,4.2C17.5,1.9 19.4,0 21.7,0C24.3,0 26.3,2.4 25.9,5L24.8,11.1C28.7,12.8 31.7,15.8 31.7,19.5L31.7,21.8C31.7,24.9 29.7,27.5 26.8,29.2C23.9,31 20.1,32 15.8,32C11.5,32 7.7,31 4.8,29.2C2,27.5 0,24.9 0,21.8L0,19.5C0,15.8 2.9,12.8 6.8,11.1L5.7,5ZM23.3,11.9L24.6,4.7C24.9,2.9 23.6,1.2 21.7,1.2C20.1,1.2 18.8,2.5 18.8,4.1L18.8,10.7C18.4,10.6 17.9,10.6 17.5,10.6C16.9,10.6 16.4,10.5 15.8,10.5C15.2,10.5 14.6,10.5 14,10.6C13.6,10.6 13.1,10.7 12.7,10.7L12.7,4.2C12.7,2.6 11.4,1.3 9.8,1.3C8,1.3 6.6,3 7,4.8L8.3,12C4.1,13.6 1.3,16.4 1.3,19.6L1.3,21.9C1.3,26.8 7.8,30.8 15.8,30.8C23.8,30.8 30.3,26.8 30.3,21.9L30.3,19.6C30.4,16.3 27.6,13.5 23.3,11.9Z" style="fill:rgb(99,48,1);"/>
        <path d="M30.4,21.8C30.4,26.7 23.9,30.7 15.9,30.7C7.9,30.7 1.4,26.7 1.4,21.8L1.4,19.5L30.5,19.5L30.5,21.8L30.4,21.8Z" style="fill:rgb(254,220,144);fill-rule:nonzero;"/>
        <path d="M7,4.8C6.6,3 8,1.3 9.8,1.3C11.4,1.3 12.7,2.6 12.7,4.2L12.7,10.8C13.7,10.7 14.7,10.6 15.8,10.6C16.8,10.6 17.8,10.7 18.8,10.8L18.8,4.2C18.8,2.6 20.1,1.3 21.7,1.3C23.5,1.3 24.9,3 24.6,4.8L23.3,12C27.5,13.6 30.4,16.4 30.4,19.6C30.4,24.5 23.9,28.5 15.9,28.5C7.9,28.5 1.4,24.5 1.4,19.6C1.4,16.4 4.2,13.6 8.4,12L7,4.8Z" style="fill:rgb(209,136,79);"/>
        <path d="M11.8,18.9C11.8,20.2 11.1,21.3 10.2,21.3C9.3,21.3 8.6,20.2 8.6,18.9C8.6,17.6 9.3,16.5 10.2,16.5C11.1,16.5 11.8,17.6 11.8,18.9Z" style="fill:rgb(99,48,1);fill-rule:nonzero;"/>
        <path d="M22.9,18.9C22.9,20.2 22.2,21.3 21.3,21.3C20.4,21.3 19.7,20.2 19.7,18.9C19.7,17.6 20.4,16.5 21.3,16.5C22.2,16.5 22.9,17.6 22.9,18.9Z" style="fill:rgb(99,48,1);fill-rule:nonzero;"/>
    </g>
</svg>
